src/Pure/16/symbolic/mimetypes/package-snap-symbolic.svg

<?xml version="1.0" encoding="UTF-8" standalone="no"?>
<svg
   width="16"
   height="16"
   version="1.1"
   id="svg1"
   sodipodi:docname="package-snap-symbolic.svg"
   inkscape:version="1.4.2 (ebf0e940d0, 2025-05-08)"
   xmlns:inkscape="http://www.inkscape.org/namespaces/inkscape"
   xmlns:sodipodi="http://sodipodi.sourceforge.net/DTD/sodipodi-0.dtd"
   xmlns="http://www.w3.org/2000/svg"
   xmlns:svg="http://www.w3.org/2000/svg">
  <defs
     id="defs1">
     <style
        id="current-color-scheme"
        type="text/css">
        .ColorScheme-Text { color:#363636; }
        .ColorScheme-NeutralText { color:#f67400; }
        .ColorScheme-PositiveText { color:#37c837; }
        .ColorScheme-NegativeText { color:#f44336; }
        .ColorScheme-Highlight { color:#3daee9; }
     </style>
  </defs>
  <sodipodi:namedview
     id="namedview1"
     pagecolor="#ffffff"
     bordercolor="#000000"
     borderopacity="0.25"
     inkscape:showpageshadow="2"
     inkscape:pageopacity="0.0"
     inkscape:pagecheckerboard="0"
     inkscape:deskcolor="#d1d1d1"
     inkscape:zoom="49.75"
     inkscape:cx="7.9899497"
     inkscape:cy="8"
     inkscape:window-width="1920"
     inkscape:window-height="1011"
     inkscape:window-x="0"
     inkscape:window-y="0"
     inkscape:window-maximized="1"
     inkscape:current-layer="svg1" />
  <path
     id="path1"
     style="fill:currentColor"
     class="ColorScheme-Text"
     d="M 1 1 L 2.1992188 3 L 2.1972656 3 L 4.8769531 7.4667969 L 1 16 L 7.5117188 11.853516 L 7.5136719 11.857422 L 7.5292969 11.841797 L 13.035156 8.3359375 L 1 1 z M 6 3 L 16 9 L 16 4 L 6 3 z M 3.9472656 3.9648438 L 11.144531 8.3535156 L 7.8417969 10.457031 L 5.7363281 6.9511719 L 3.9472656 3.9648438 z M 10.339844 4.4375 L 15 4.9042969 L 15 7.234375 L 10.339844 4.4375 z M 5.5039062 8.5097656 L 6.9960938 10.996094 L 3.3046875 13.347656 L 5.5039062 8.5097656 z " />
</svg>

<svg width="16" height="16" version="1.1" xmlns="http://www.w3.org/2000/svg">
 <path d="m1 1 1.1992 2h-0.00195l2.6797 4.4668-3.877 8.5332 6.5117-4.1465 0.00195 0.0039 0.015625-0.01563 5.5059-3.5059zm5 2 10 6v-5zm-2.0527 0.96484 7.1973 4.3887-3.3027 2.1035-2.1055-3.5059zm6.3926 0.47266 4.6602 0.4668v2.3301zm-4.8359 4.0723 1.4922 2.4863-3.6914 2.3516z" fill="#363636"/>
</svg>
